!!!OTL: THOMS SASS AM HALLENDEN SEE
!!!ARE: Europa, Mitteleuropa, Deutschland
!!!SCT: F0849
!!!YEM: Copyright 1995, estate of Helmut Schaffrath.
**kern
*ICvox
*Ivox
*M6/8
*k[b-e-a-]
*E-:
{8b-
=1
4g
8g
8.f
16g
8f
=2
4.e-
4r}
{8b-
=3
8.cc
16b-
8cc
8.dd
16ee-
8dd
=4
4.ee-
4r}
{8gg
=5
8.ff
16ee-
8dd
8ee-
8dd
8cc
=6
4.dd
4b-}
{8gg
=7
4.ff
4ee-
8g
=8
4.f
4e-}
{8f
=9
8.g-
16f
8e-
8d
8d
8d
=10
4.e-
4r}
==
!!!AGN: erzaehlendes Volks - Lied, Ballade
!!!ONB: ESAC (Essen Associative Code) Database: FINK
!!!AMT: compound duple
!!!AIN: vox
!!!EED: Helmut Schaffrath
!!!EEV: 1.0
*-
